X: 4
T: Bird In The Bush, The
Z: gian marco
S: https://thesession.org/tunes/629#setting28677
R: reel
M: 4/4
L: 1/8
K: Gmaj
|: d2eB dB~B2 | dBAB GAAG | EG~G2 BG~G2 | BGBd eage |
d2eB dB~B2 | dBAB ~G2GE | DEGA B2eB | dBAc BG~G2 :|
|: (3Bcd ef g2fg | af~f2 gfed | Bdef ~g3b | agab g3a |
bg~g2 agef | ~g3e dBGE | DEGA B2eB | dBAc BGG2 :|
